X: 9775
T: Delvinside
R: strathspey
M: 4/4
K: Amixolydian
|:A>a (3fed e>Ae<c|A>a (3fed g>Gd<B|A<af<d e<A (3efg|(3agf g<e d>Gd<B:|
|:g/g/A e/e/A g/g/A e<a|g/g/A e/e/A g/g/G d<B|g/g/A e<A g<A (3efg|(3agf (3gfe dGd<B:|
|:e>af<d e>Ae<c|e>afd g>GdB|A>af<d eA (3efg|(3agf g<e dGd<B:|
a/a/A e/e/A a/a/A e<c|a/a/A e/e/A g/g/G d<B|a/a/A e<A a<A e<c|(3agf (3gfe d>Gd<B|
a/a/A e<A a>A e<c|a>Ae>A g>Gd<B|(3ABc (3Bcd (3 cde (3efg|(3fga ef g<Gd<B||

